src/routes/Solucoes_RH/Pales_Trein/assets_pales_trein/hero-bg.svg

<svg width="1920" height="812" fill="none" xmlns="http://www.w3.org/2000/svg"><path fill-rule="evenodd" clip-rule="evenodd" d="M1920 0v715.001c-46.74 9.256-102.48-12.591-151.05-3.451-48.13 9.056-90.39 50.725-140.51 58.036-48.64 7.094-103.44-20.36-153.77-14.991-49.02 5.229-95.09 43.495-145.54 47.013-49.29 3.438-101.41-27.939-151.91-26.204C1127.76 777.103 1078.47 812 1028 812c-50.468 0-99.746-34.897-149.208-36.596-50.492-1.735-102.611 29.643-151.897 26.206-50.449-3.518-96.525-41.785-145.542-47.013-50.33-5.369-105.127 22.085-153.766 14.992-50.127-7.311-92.389-48.979-140.52-58.036-49.82-9.374-107.19 13.47-154.651 2.321C83.398 702.36 46.107 657.775 0 644.001V0h1920Z" fill="#F5F2EB"/></svg>

<svg width="1920" height="812" viewBox="0 0 1920 812" fill="none" xmlns="http://www.w3.org/2000/svg">
<path fill-rule="evenodd" clip-rule="evenodd" d="M1920 0C1920 0 1920 621.488 1920 715.001C1873.26 724.257 1817.52 702.41 1768.95 711.55C1720.82 720.606 1678.56 762.275 1628.44 769.586C1579.8 776.68 1525 749.226 1474.67 754.595C1425.65 759.824 1379.58 798.09 1329.13 801.608C1279.84 805.046 1227.72 773.669 1177.22 775.404C1127.76 777.103 1078.47 812 1028 812C977.532 812 928.254 777.103 878.792 775.404C828.3 773.669 776.181 805.047 726.895 801.61C676.446 798.092 630.37 759.825 581.353 754.597C531.023 749.228 476.226 776.682 427.587 769.589C377.46 762.278 335.198 720.61 287.067 711.553C237.247 702.179 179.877 725.023 132.416 713.874C83.398 702.36 46.107 657.775 0 644.001C0 610.918 0 0 0 0H1920Z" fill="#F5F2EB"/>
</svg>
